MailResources/Assets.xcassets/teams-user.imageset/teams-user.svg

<svg width="24" height="24" viewBox="0 0 24 24" fill="none" xmlns="http://www.w3.org/2000/svg">
<path d="M6.917 18.2236C6.87985 18.4968 6.62874 18.6889 6.35546 18.6523C6.08188 18.6156 5.89012 18.3634 5.92675 18.0898L6.917 18.2236ZM12.0469 6C12.5281 6 13.0047 6.09516 13.4492 6.2793C13.8937 6.46343 14.2976 6.73307 14.6377 7.07324C14.9779 7.41341 15.2475 7.81728 15.4317 8.26172C15.6158 8.70626 15.711 9.18289 15.711 9.66406L15.7061 9.84375C15.6855 10.2635 15.5928 10.6773 15.4317 11.0664C15.2475 11.5108 14.9779 11.9147 14.6377 12.2549C14.3521 12.5405 14.0209 12.7748 13.6592 12.9521C14.5593 13.1958 15.3998 13.6416 16.1123 14.2647C16.1146 14.2666 16.1169 14.2685 16.1192 14.2705C16.3653 13.8728 16.6687 13.5118 17.0225 13.2021C17.5542 12.7368 18.1845 12.3966 18.8653 12.207C18.9486 12.1838 19.0329 12.1631 19.1172 12.1445C18.7163 11.9979 18.3467 11.7685 18.0391 11.4609C17.5533 10.9751 17.2539 10.3379 17.1865 9.66016L17.1719 9.36719C17.1719 8.5819 17.4838 7.82872 18.0391 7.27344C18.5944 6.71815 19.3475 6.40625 20.1328 6.40625C20.9181 6.40625 21.6713 6.71815 22.2266 7.27344C22.7819 7.82872 23.0938 8.5819 23.0938 9.36719C23.0938 10.1525 22.7819 10.9057 22.2266 11.4609C21.9178 11.7697 21.5463 11.999 21.1436 12.1455C21.7701 12.2832 22.3628 12.5467 22.8848 12.9219C23.1089 13.083 23.16 13.395 22.999 13.6191C22.8379 13.8433 22.526 13.8944 22.3018 13.7334C21.8497 13.4085 21.3294 13.1892 20.7813 13.0918C20.2331 12.9944 19.6692 13.0206 19.1328 13.1699C18.5966 13.3193 18.1006 13.5876 17.6817 13.9541C17.3373 14.2555 17.0532 14.6187 16.8408 15.0225C17.5519 15.8987 18.0148 16.9581 18.167 18.0898C18.2036 18.3634 18.0118 18.6155 17.7383 18.6523C17.465 18.689 17.214 18.4968 17.1768 18.2236C17.0098 16.9817 16.3973 15.8416 15.4541 15.0166C14.5108 14.1917 13.3 13.7373 12.0469 13.7373C10.7938 13.7373 9.58296 14.1917 8.63964 15.0166C7.69636 15.8416 7.08399 16.9817 6.917 18.2236L6.42188 18.1562L5.92675 18.0898C6.07897 16.958 6.54083 15.8978 7.25196 15.0215C7.03969 14.6183 6.75611 14.2552 6.41211 13.9541C5.99307 13.5875 5.49636 13.3193 4.95997 13.1699C4.42355 13.0207 3.85974 12.9944 3.31153 13.0918C2.76347 13.1893 2.244 13.4085 1.792 13.7334L1.70411 13.7842C1.49191 13.8793 1.2348 13.8153 1.09376 13.6191C0.933214 13.395 0.984174 13.0829 1.208 12.9219L1.42675 12.7734C1.89313 12.4763 2.40873 12.2643 2.94921 12.1455C2.54688 11.999 2.17577 11.7695 1.86718 11.4609C1.38139 10.9751 1.08202 10.3379 1.01465 9.66016L1 9.36719C1 8.5819 1.3119 7.82872 1.86718 7.27344C2.42247 6.71815 3.17565 6.40625 3.96094 6.40625C4.74623 6.40625 5.4994 6.71815 6.05469 7.27344C6.60997 7.82872 6.92188 8.5819 6.92188 9.36719L6.90723 9.66016C6.83987 10.3379 6.54048 10.9751 6.05469 11.4609C5.74686 11.7688 5.3768 11.998 4.97558 12.1445C5.06032 12.1631 5.14473 12.1837 5.22852 12.207C5.90915 12.3965 6.53861 12.7369 7.07031 13.2021C7.42409 13.5118 7.72751 13.8729 7.97364 14.2705C7.97608 14.2684 7.979 14.2668 7.98144 14.2647C8.69375 13.6417 9.5338 13.1958 10.4336 12.9521C10.0722 12.7749 9.74144 12.5403 9.45605 12.2549C9.11588 11.9147 8.84624 11.5108 8.6621 11.0664C8.50093 10.6773 8.40831 10.2635 8.3877 9.84375L8.38282 9.66406C8.38282 9.18289 8.47797 8.70626 8.6621 8.26172C8.84624 7.81728 9.11588 7.41341 9.45605 7.07324C9.79622 6.73307 10.2001 6.46343 10.6446 6.2793C11.0891 6.09516 11.5657 6 12.0469 6ZM12.0469 7C11.6971 7 11.3506 7.06924 11.0274 7.20312C10.7042 7.33701 10.4105 7.53293 10.1631 7.78027C9.91575 8.02762 9.71981 8.32137 9.58593 8.64453C9.45205 8.96775 9.38282 9.31421 9.38282 9.66406L9.3955 9.92578C9.42118 10.1859 9.48556 10.4413 9.58593 10.6836C9.71981 11.0068 9.91575 11.3005 10.1631 11.5479C10.4105 11.7952 10.7042 11.9911 11.0274 12.125C11.3506 12.2589 11.697 12.3281 12.0469 12.3281C12.3968 12.3281 12.7432 12.2589 13.0664 12.125C13.3896 11.9911 13.6833 11.7952 13.9307 11.5479C14.178 11.3005 14.374 11.0068 14.5078 10.6836C14.6417 10.3604 14.711 10.0139 14.711 9.66406L14.6983 9.40234C14.6726 9.14226 14.6082 8.88686 14.5078 8.64453C14.374 8.32137 14.178 8.02762 13.9307 7.78027C13.6833 7.53293 13.3896 7.33701 13.0664 7.20312C12.7432 7.06924 12.3967 7 12.0469 7ZM3.96094 7.40625C3.44087 7.40625 2.94196 7.61272 2.57421 7.98047C2.20647 8.34822 2.00001 8.84711 1.99999 9.36719L2.00977 9.56055C2.05426 10.0096 2.25233 10.432 2.57421 10.7539C2.94196 11.1217 3.44087 11.3281 3.96094 11.3281C4.48102 11.3281 4.9799 11.1217 5.34765 10.7539C5.7154 10.3862 5.92188 9.88726 5.92188 9.36719L5.91211 9.17383C5.86763 8.72476 5.66953 8.30235 5.34765 7.98047C4.9799 7.61272 4.48102 7.40625 3.96094 7.40625ZM20.1328 7.40625C19.6128 7.40625 19.1139 7.61272 18.7461 7.98047C18.3784 8.34822 18.1719 8.84711 18.1719 9.36719C18.1719 9.88726 18.3784 10.3862 18.7461 10.7539C19.1139 11.1217 19.6128 11.3281 20.1328 11.3281C20.6529 11.3281 21.1518 11.1217 21.5196 10.7539C21.8873 10.3862 22.0938 9.88726 22.0938 9.36719C22.0938 8.84711 21.8873 8.34822 21.5196 7.98047C21.1518 7.61272 20.6529 7.40625 20.1328 7.40625Z" fill="black"/>
</svg>

<svg xmlns="http://www.w3.org/2000/svg" width="24" height="24" fill="none"><path fill="#000" d="M6.917 18.224a.5.5 0 0 1-.99-.134l.99.134ZM12.047 6a3.665 3.665 0 0 1 3.664 3.664l-.005.18a3.667 3.667 0 0 1-1.068 2.41 3.66 3.66 0 0 1-.979.698c.9.244 1.74.69 2.453 1.313l.007.005a4.718 4.718 0 0 1 2.746-2.063c.084-.023.168-.044.252-.063-.4-.146-.77-.376-1.078-.683a2.961 2.961 0 0 1-.853-1.8l-.014-.294a2.96 2.96 0 1 1 5.055 2.094c-.31.309-.68.538-1.083.684a4.718 4.718 0 0 1 1.74.777.5.5 0 1 1-.582.811 3.723 3.723 0 0 0-4.62.221 3.72 3.72 0 0 0-.841 1.069 6.174 6.174 0 0 1 1.326 3.067.5.5 0 0 1-.99.134 5.179 5.179 0 0 0-5.13-4.487 5.176 5.176 0 0 0-5.13 4.487l-.495-.068-.495-.066a6.176 6.176 0 0 1 1.325-3.069 3.72 3.72 0 0 0-.84-1.067 3.724 3.724 0 0 0-3.1-.862 3.72 3.72 0 0 0-1.52.641l-.088.051a.5.5 0 0 1-.496-.862l.219-.149a4.7 4.7 0 0 1 1.522-.627 2.956 2.956 0 0 1-1.082-.685 2.96 2.96 0 0 1-.852-1.8L1 9.366a2.961 2.961 0 1 1 5.922 0l-.015.293a2.96 2.96 0 0 1-.852 1.8 2.954 2.954 0 0 1-1.08.684 4.72 4.72 0 0 1 2.998 2.126l.008-.005a6.177 6.177 0 0 1 2.453-1.313 3.66 3.66 0 0 1-2.046-3.108l-.005-.18A3.665 3.665 0 0 1 12.047 6Zm0 1a2.665 2.665 0 0 0-2.664 2.664l.013.262a2.665 2.665 0 0 0 5.315-.262l-.013-.262A2.665 2.665 0 0 0 12.047 7Zm-8.086.406A1.961 1.961 0 0 0 2 9.367l.01.194a1.961 1.961 0 0 0 3.912-.194l-.01-.193a1.96 1.96 0 0 0-1.951-1.768Zm16.172 0a1.961 1.961 0 1 0 0 3.923 1.961 1.961 0 0 0 0-3.923Z"/></svg>
